src/assets/mobile/degen1.svg

<svg xmlns="http://www.w3.org/2000/svg" width="558" height="530" fill="none"><rect width="558" height="530" fill="#03112E" rx="48"/><path fill="#fff" d="M185.643 241.834h26.015l7.248 7.248.056 21.271-7.249 7.193h-26.056v-35.698zm23.163 30.342 4.076-4.076-.097-16.834-3.979-4.076h-17.084l.097 24.986zM227.725 241.834h30.189v5.356H233.79l.098 9.738h18.405v5.203h-18.461l.056 10.045h24.582l-.056 5.356h-30.703v-35.698zM263.423 270.283l-.056-21.271 7.29-7.193h24.68v5.356h-21.884l-4.034 4.077.056 16.833 3.978 4.076h14.733l4.076-4.076-.055-6.274h-12.855l.056-4.995h18.92l-.056 13.509-7.248 7.192h-20.395l-7.248-7.248zM306.317 241.834h30.188v5.356h-24.123l.098 9.738h18.405v5.203h-18.461l.056 10.045h24.582l-.056 5.356h-30.703v-35.698zM343.945 241.834h10.198l16.263 29.535h.918l-.097-29.535h5.912v35.698h-10.044l-16.319-29.535h-.862l-.056 29.535h-5.913zM398.718 275.543l14.274-33.709h8.932l14.635 33.709-.098 1.989h-5.759l-12.757-30.342h-1.016l-12.646 30.342h-5.662zm10.309-12.243h16.875l2.198 5.356h-21.215zM440.647 272.579h7.137l-.055-25.807h-7.137v-4.953h20.353v4.953h-7.137l.056 25.807h7.137l-.056 4.952h-20.353z"/><path fill="#4C532C" d="m155.376 279.658-.917 1.585L97 299.527v-58.178l2.653-.199v56.24l1.834-.58z"/><path fill="#96962A" d="m159.258 275.622-.918 1.581.085-.028.918-1.581zM159.256 275.621l-.918 1.581-1.991.636-55.419 17.579V237.37l2.641-.198v56.113l1.836-.579 51.86-16.45z"/><path fill="#DFD828" d="M161.458 235.973 149.412 230l-44.432 3.318v58.048l53.329-16.916 2.006-.635.07-.029 2.02-.635.084-.028 7.782-13.4zm-2.118 24.315-4.124 6.128-1.596.437-1.624.438-.466.113-1.624.438-29.094 7.851-2.485-28.466-.127-1.398-.198-2.217-.127-1.412-.198-2.316-.113-1.299 4.166-.424 25.083-2.555 7.047 3.572 5.381 16.789.975 3.036z"/><path fill="#96962A" d="m158.66 258.791-2.627 3.883-6.228-19.429-7.061-3.587-23.445 2.401-.197-2.203 2.881-.297 21.057-2.16 3.503-.353 6.157 3.12.777 2.429 4.378 13.697z"/><path fill="#4C532C" d="m154.611 262.844-1.879 2.782-1.031.282-5.96-18.61-7.047-3.572-19.08 1.948-.198-2.217 23.063-2.344 6.158 3.121z"/></svg>

<svg width="558" height="530" viewBox="0 0 558 530" fill="none" xmlns="http://www.w3.org/2000/svg">
<rect width="558" height="530" rx="48" fill="#03112E"/>
<path d="M185.643 241.834H211.658L218.906 249.082L218.962 270.353L211.713 277.546H185.657V241.848L185.643 241.834ZM208.806 272.176L212.882 268.1L212.785 251.266L208.806 247.19H191.722L191.819 272.176H208.806Z" fill="white"/>
<path d="M227.725 241.834H257.914V247.19H233.79L233.888 256.928H252.293V262.131H233.832L233.888 272.176H258.47L258.414 277.532H227.711V241.834H227.725Z" fill="white"/>
<path d="M263.423 270.283L263.367 249.012L270.657 241.819H295.337V247.175H273.453L269.419 251.252L269.475 268.085L273.453 272.161H288.186L292.262 268.085L292.207 261.811H279.352L279.408 256.816H298.328L298.272 270.325L291.024 277.517H270.629L263.381 270.269L263.423 270.283Z" fill="white"/>
<path d="M306.317 241.834H336.505V247.19H312.382L312.48 256.928H330.885V262.131H312.424L312.48 272.176H337.062L337.006 277.532H306.303V241.834H306.317Z" fill="white"/>
<path d="M343.945 241.834H354.143L370.406 271.369H371.324L371.227 241.834H377.139V277.532H367.095L350.776 247.997H349.914L349.858 277.532H343.945V241.834Z" fill="white"/>
<path d="M398.718 275.543L412.992 241.834H421.924L436.559 275.543L436.461 277.532H430.702L417.945 247.19H416.929L404.283 277.532H398.621L398.718 275.543ZM409.027 263.3H425.902L428.1 268.656H406.885L409.027 263.3Z" fill="white"/>
<path d="M440.647 272.579H447.784L447.729 246.772H440.592V241.819H460.945V246.772H453.808L453.864 272.579H461.001L460.945 277.531H440.592L440.647 272.579Z" fill="white"/>
<path d="M155.376 279.658L154.459 281.243L97 299.527V241.349L99.6528 241.15V297.39L101.487 296.81L155.376 279.658Z" fill="#4C532C"/>
<path d="M159.258 275.622L158.34 277.203L158.425 277.175L159.343 275.594L159.258 275.622Z" fill="#96962A"/>
<path d="M159.256 275.621L158.338 277.202L156.347 277.838L100.928 295.417V237.37L103.569 237.172V293.285L105.405 292.706L157.265 276.256L159.256 275.621Z" fill="#96962A"/>
<path d="M161.458 235.973L149.412 230L104.98 233.318V291.366L158.309 274.45L160.315 273.815L160.385 273.786L162.405 273.151L162.489 273.123L170.271 259.723L161.458 235.973ZM159.34 260.288L155.216 266.416L153.62 266.853L151.996 267.291L151.53 267.404L149.906 267.842L120.812 275.693L118.327 247.227L118.2 245.829L118.002 243.612L117.875 242.2L117.677 239.884L117.564 238.585L121.73 238.161L146.813 235.606L153.86 239.178L159.241 255.967L160.216 259.003L159.34 260.288Z" fill="#DFD828"/>
<path d="M158.66 258.791L156.033 262.674L149.805 243.245L142.744 239.658L119.299 242.059L119.102 239.856L121.983 239.559L143.04 237.399L146.543 237.046L152.7 240.166L153.477 242.595L157.855 256.292L158.66 258.791Z" fill="#96962A"/>
<path d="M154.611 262.844L152.732 265.626L151.701 265.908L145.741 247.298L138.694 243.726L119.614 245.674L119.416 243.457L142.479 241.113L148.637 244.234L154.611 262.844Z" fill="#4C532C"/>
</svg>
